X:5
T:Handy With A Stick
M:12/8
L:1/8
S:Teada #1 Track #1
R:single jig
Z:Ed Wosika
K:G
|:Bed BcA ~G3 BAE| DGG FGA BeB c2 A| Bed BcA GFG BAE| DGG FGA  Bed e3:|
|:gdB GBd gfg age| c2d/2c/2  cBA ced cAG| GBB Acc GBA GFE|1 DFF FAA Bed e3:|**
